!!!OTL: HOPSA SCHWABENLIESEL
!!!ARE: Europa, Mitteleuropa, Deutschland, Schwaben
!!!SCT: E1036
!!!YEM: Copyright 1995, estate of Helmut Schaffrath.
**kern
*ICvox
*Ivox
*M2/4
*k[f#]
*G:
=1
{4b
4b
=2
8b
16a
16b
8cc
8b}
=3
{8a
8g#
8a
8g
=4
8f#
8ee
8dd
8cc}
=5
{4b
4b
=6
8b
16a
16b
8cc
8b}
=7
{8a
8d
8e
8f#
=8
4g
4r}
=9
{4f#
4f#
=10
8f#
16e
16f#
8g
8f#}
=11
{8e
8d#
8e
8d
=12
8c#
8b
8a
8g}
=13
{4f#
4f#
=14
8f#
16e
16f#
8g
8f#}
=15
{8e
8d
8c#
8e
=16
4d
4cc}
=17
{4b
4b
=18
8b
16a
16b
8cc
8b}
=19
{8a
8g#
8a
8g
=20
8f#
8ee
8dd
8cc}
=21
{4b
4b
=22
8b
16a
16b
8cc
8b}
=23
{8a
8d
8e
8f#
=24
4g
4r}
==
!!!AGN: Tanz - Lied
!!!ONB: ESAC (Essen Associative Code) Database: ERK3
!!!AMT: simple duple
!!!AIN: vox
!!!EED: Helmut Schaffrath
!!!EEV: 1.0
*-
